!!!COM: Corelli, Arcangelo
!!!OTL: 
!!!ONM: Opus 6, No. 3
!!!OMV: 5
!!!CDT: 1653/2/17/-1713/1/8/
!!!OCY: Italia
**kern	**kern	**kern	**kern
*clefC	*clefG	*clefG	*clefG
*k[b-e-]	*k[b-e-]	*k[b-e-]	*k[b-e-]
*g:	*g:	*g:	*g:
*M4/4	*M4/4	*M4/4	*M4/4
=1	=1	=1	=1
1r	1r	1r	1r
.	.	.	.
.	.	.	.
.	.	.	.
.	.	.	.
.	.	.	.
.	.	.	.
=2	=2	=2	=2
1r	1r	1r	1r
.	.	.	.
.	.	.	.
.	.	.	.
.	.	.	.
.	.	.	.
.	.	.	.
.	.	.	.
=3	=3	=3	=3
4r	4r	4r	4r
.	.	.	.
.	.	.	.
12G	4b-	2ee-	4gg
12F	.	.	.
12G	.	.	.
.	.	.	.
12A	4cc	.	2ff
12G	.	.	.
12A	.	.	.
.	.	.	.
12B	4dd	[4dd	.
12A	.	.	.
12B	.	.	.
.	.	.	.
=4	=4	=4	=4
12c	4g	4dd]	2ee-
12B	.	.	.
12c	.	.	.
12E-	4g	2cc	.
12D	.	.	.
12E-	.	.	.
.	.	.	.
12F	4a-	.	2dd
12E-	.	.	.
12F	.	.	.
.	.	.	.
12G	4g	4b	.
12F	.	.	.
12G	.	.	.
.	.	.	.
=5	=5	=5	=5
4C	4g	4cc	4cc
.	.	.	.
.	.	.	.
2r	2r	2r	2r
.	.	.	.
.	.	.	.
.	.	.	.
.	.	.	.
.	.	.	.
4G	4g	4g	4dd
.	.	.	.
.	.	.	.
=6	=6	=6	=6
4C	4g	4g	4ee-
.	.	.	.
.	.	.	.
2r	2r	2r	2r
.	.	.	.
.	.	.	.
.	.	.	.
.	.	.	.
4B-	4B-	4b-	4ff
.	.	.	.
.	.	.	.
.	.	.	.
=7	=7	=7	=7
4E-	4B-	4b-	4gg
.	.	.	.
2r	2r	2r	2r
.	.	.	.
.	.	.	.
.	.	.	.
.	.	.	.
4c	4c	4cc	4gg
.	.	.	.
.	.	.	.
=8	=8	=8	=8
4F	4c	4cc	4aa-
.	.	.	.
4G	4g	4b	2gg
.	.	.	.
.	.	.	.
2A-	2cc	2cc	.
.	.	.	.
.	.	.	4ff
.	.	.	.
.	.	.	.
=9	=9	=9	=9
4G	4dd	4b	4gg
.	.	.	.
4c	2cc	4r	2ee-
.	.	.	.
4F	.	2a-	.
.	.	.	.
4B-	[4b-	.	[4dd
.	.	.	.
.	.	.	.
=10	=10	=10	=10
4E-	4b-]	2g	4dd]
.	.	.	.
4A-	2a-	.	2cc
.	.	.	.
4D	.	2f	.
.	.	.	.
4G	[4g	.	4b
.	.	.	.
=11	=11	=11	=11
4C	4g]	4e-	4cc
.	.	.	.
.	.	.	.
4c	4e-	4r	2a-
.	.	.	.
.	.	.	.
4B-	4f	2dd	.
4E-	4g	.	[4g
=12	=12	=12	=12
4A-	2c	2cc	4g]
.	.	.	.
4AA-	.	.	4f
.	.	.	.
4GG	4d	4b	4g
4r	4r	4g	4e-
.	.	.	.
.	.	.	.
=13	=13	=13	=13
4r	4r	4f	4d
.	.	.	.
4C	4g	4e-	4c
.	.	.	.
.	.	.	.
2G	2g	4d	4B
.	.	.	.
.	.	.	.
.	.	4g	4e-
.	.	.	.
.	.	.	.
=14	=14	=14	=14
4r	4r	4f	4d
.	.	.	.
.	.	.	.
4C	4G	4e-	4c
.	.	.	.
.	.	.	.
.	.	.	.
2GG	2G	2d	2B
.	.	.	.
.	.	.	.
.	.	.	.
.	.	.	.
=15	=15	=15	=15
1r	1r	1r	1r
.	.	.	.
.	.	.	.
.	.	.	.
.	.	.	.
.	.	.	.
.	.	.	.
.	.	.	.
.	.	.	.
=16	=16	=16	=16
1r	1r	1r	1r
.	.	.	.
.	.	.	.
.	.	.	.
=17	=17	=17	=17
4r	4r	4r	4r
12D	4f	2bb-	4ddd
.	.	.	.
12C	.	.	.
12D	.	.	.
12E	4g	.	2ccc
12D	.	.	.
12E	.	.	.
12F#	4a	[4aa	.
12E	.	.	.
12F#	.	.	.
=18	=18	=18	=18
12G	4d	4aa]	2bb-
12F#	.	.	.
12G	.	.	.
12BB-	4d	2gg	.
12AA	.	.	.
.	.	.	.
12BB-	.	.	.
12C	4e-	.	2aa
12BB-	.	.	.
12C	.	.	.
12D	4d	4ff#	.
.	.	.	.
12C	.	.	.
12D	.	.	.
=19	=19	=19	=19
4GG	4d	4gg	4gg
.	.	.	.
2.r	2.r	2.r	2.r
.	.	.	.
.	.	.	.
=20	=20	=20	=20
2r	2r	2r	2r
.	.	.	.
.	.	.	.
4c	4cc	4gg	4ee
.	.	.	.
4C	4cc	4ccc	4ee
=21	=21	=21	=21
4F	4cc	4aa-	4ff
2.r	2.r	2.r	2.r
.	.	.	.
.	.	.	.
=22	=22	=22	=22
2r	2r	2r	2r
.	.	.	.
.	.	.	.
.	.	.	.
.	.	.	.
4B-	4b-	4ff	4dd
.	.	.	.
.	.	.	.
4BB-	4b-	4bb-	4dd
.	.	.	.
.	.	.	.
=23	=23	=23	=23
4E-	4b-	4gg	4ee-
.	.	.	.
.	.	.	.
.	.	.	.
2.r	2.r	2.r	2.r
.	.	.	.
.	.	.	.
.	.	.	.
.	.	.	.
.	.	.	.
=24	=24	=24	=24
2r	2r	2r	2r
.	.	.	.
.	.	.	.
.	.	.	.
.	.	.	.
4c	4g	4cc	4ee-
.	.	.	.
.	.	.	.
.	.	.	.
4G	4g	4b	4dd
=25	=25	=25	=25
4C	4g	4cc	4ee-
.	.	.	.
.	.	.	.
2.r	2.r	2.r	2.r
.	.	.	.
.	.	.	.
.	.	.	.
.	.	.	.
.	.	.	.
.	.	.	.
=26	=26	=26	=26
2r	2r	2r	2r
.	.	.	.
.	.	.	.
.	.	.	.
.	.	.	.
4B-	4f	4b-	4dd
.	.	.	.
.	.	.	.
4F	4f	4a	4cc
.	.	.	.
.	.	.	.
=27	=27	=27	=27
4BB-	4f	4b-	4dd
.	.	.	.
2.r	2.r	2.r	2.r
.	.	.	.
.	.	.	.
.	.	.	.
.	.	.	.
=28	=28	=28	=28
2r	2r	2r	2r
.	.	.	.
.	.	.	.
.	.	.	.
4A-	4e-	4a-	4cc
.	.	.	.
4E-	4e-	4g	4b-
.	.	.	.
=29	=29	=29	=29
4AA-	4e-	4a-	4cc
.	.	.	.
.	.	.	.
4F	4a-	8r	8r
.	.	8a-	8cc
4G	4g	4d	4b
.	.	.	.
4r	4r	4r	4r
.	.	.	.
=30	=30	=30	=30
1r	1r	1r	1r
.	.	.	.
.	.	.	.
.	.	.	.
.	.	.	.
.	.	.	.
.	.	.	.
=31	=31	=31	=31
1r	1r	1r	1r
.	.	.	.
.	.	.	.
.	.	.	.
.	.	.	.
.	.	.	.
.	.	.	.
.	.	.	.
.	.	.	.
=32	=32	=32	=32
4A-	4f	4cc	4ff
.	.	.	.
.	.	.	.
4F	4f	2ff	4aa-
.	.	.	.
4G	4d	.	4b
.	.	.	.
.	.	.	.
4C	8e-	8ee-	[4cc
.	.	.	.
.	8f	8dd	.
.	.	.	.
=33	=33	=33	=33
4G	2g	4ee-	4cc]
.	.	.	.
.	.	.	.
4GG	.	4dd	4b
.	.	.	.
.	.	.	.
4C	4g	4cc	4cc
.	.	.	.
.	.	.	.
4r	4r	4r	4r
.	.	.	.
=34	=34	=34	=34
1r	1r	1r	1r
.	.	.	.
.	.	.	.
.	.	.	.
.	.	.	.
.	.	.	.
.	.	.	.
.	.	.	.
.	.	.	.
=35	=35	=35	=35
1r	1r	1r	1r
.	.	.	.
.	.	.	.
.	.	.	.
.	.	.	.
.	.	.	.
.	.	.	.
.	.	.	.
.	.	.	.
=36	=36	=36	=36
4A-	4f	4cc	4ff
.	.	.	.
4F	4f	2ff	4aa-
.	.	.	.
4G	4d	.	4b
.	.	.	.
.	.	.	.
4C	8e-	8ee-	[4cc
.	.	.	.
.	8f	8dd	.
.	.	.	.
=37	=37	=37	=37
4G	2g	4ee-	4cc]
.	.	.	.
4GG	.	4dd	4b
.	.	.	.
2C	4g	4cc	4cc
.	.	.	.
.	4r	4r	4r
.	.	.	.
=38	=38	=38	=38
1r	1r	1r	1r
.	.	.	.
.	.	.	.
.	.	.	.
.	.	.	.
.	.	.	.
.	.	.	.
.	.	.	.
=39	=39	=39	=39
4G	4g	4b	4f
.	.	.	.
.	.	.	.
4C	4g	2cc	4e-
.	.	.	.
.	.	.	.
4G	2g	.	2d
.	.	.	.
4GG	.	4b	.
.	.	.	.
=40	=40	=40	=40
4C	4g	4cc	4c
.	.	.	.
.	.	.	.
2.r	2.r	2.r	2.r
.	.	.	.
.	.	.	.
.	.	.	.
.	.	.	.
.	.	.	.
.	.	.	.
=41	=41	=41	=41
2r	2r	2r	2r
.	.	.	.
.	.	.	.
.	.	.	.
.	.	.	.
4G	4g	4B	4f
.	.	.	.
.	.	.	.
4C	4g	[4c	4e-
.	.	.	.
.	.	.	.
=42	=42	=42	=42
4G	2g	4c]	2d
.	.	.	.
.	.	.	.
4GG	.	4B	.
.	.	.	.
.	.	.	.
.	.	.	.
2C	2g	2c	2c
.	.	.	.
.	.	.	.
.	.	.	.
.	.	.	.
==	==	==	==
*-	*-	*-	*-
!!!RWG: This file only contains pitch and duration data.
!!!RWG: Transposing instruments are not transposed.
!!!RWG: Durations of rests and tied notes may be interpreted.
!!!RWG: This file only contains pitch and duration data.
!!!RWG: Transposing instruments are not transposed.
!!!RWG: Durations of rests and tied notes may be interpreted.
!!!RWG: Key is interpreted using the Humdrum key tool.
!!!SCA: 
!!!YOR: Chrysander Edition
!!!AGN: concerto grosso
!!!AFT: stage1
!!!ENC: F. Bennion
!!!END: 1997/04/15
!!!AST: baroque
!!!YEC: Copyright 1994, Center for Computer Assisted Research in the Humanities
!!!YEM: Rights to all derivative electronic formats reserved.
!!!YEM: Refer to licensing agreement for further details.
!!!YEN: United States of America
!!!EED: W.B. Hewlett
!!!KEY: 2162635072
!!!EMD: Converted from MuseData to Humdrum Aug 9, 1999, by Bret Aarden using muse2kern.
!!!VTS: 2538359779
